X: 75
T: New Dutch Skipper
%%VWML:Wrights-3753-p38-0
F: http://www.vwml.org/record/Wrights/3753/p38
%R: jig
B: Daniel Wright "Wright's Compleat Collection of Celebrated Country Dances" 1740 p.38
S: http://library.efdss.org/cgi-bin/dancebooks.cgi
Z: 2014 John Chambers <jc:trillian.mit.edu>
N: Repeats added to match the dance's phrasing. This may not be what was intended. N: Repeated "then" deleted from the dance description. The 2nd strain has 10 bars.
M: 6/4
L: 1/4
K: D
%-------------------------
|:\
D2A F2D | D2A F2D | ABc d2A | ABc d2D |\
D2A F2D | D2A F2D | ABc dcB | EA^G A3 ::\
e2e e2c |
d2e f3 |\
efg f3 | efg f3 | gfe gfe | fed c2B |\
d2A F2B | A2d c2d | e2e agf | efc d3 :|
%-------------------------
%%begintext align
%% The 1st two Men take Hands & Jump then change Places with
%% their two Women .| Then 1st Cu. cast of & change Places again %% then 2d Cu. cast off :| Hands half round then clap hands
%% and Jump with your Partner and turn all four single .|
%% then lead up abreast dance round and cast off into their own %% Places.
%%endtext %------------------------- %%sep 2 4 300
T: Buxton Wells
T: Longways for as many as will.
%R: jig
B: Daniel Wright "Wright's Compleat Collection of Celebrated Country Dances" 1740 p.38
S: http://library.efdss.org/cgi-bin/dancebooks.cgi
Z: 2014 John Chambers <jc:trillian.mit.edu>
N: Repeats added to match the dance's phrasing. This may not be what was intended. M: 1/8
L: 1/8
K: D
%-------------------------
A |\
dAF BGE | AFD d2e | fdB ecA | dBG F2G |\
AFD BGE | cAF g2f | ecA ^GEA | FB^G A2 :|
|: c |\
ecA dfd | BdB G2f | gec ^AFB | FB^A B2c |\
dBF GEd | eBe c2A | dfd BGA | FDc d2 :|
%-------------------------
%%begintext align
%% Hands all four a Quarter round 1st Man & 2d Wo
%% change Places, then Hands another Quarter round
%% then 2d Man & 1st Wo. change Places, which makes
%% all Proper .| The two Men lead thro' the two We. &
%% cast in own Places & turn Hands :| Hands across
%% quite round, and back again .| Lead to the
%% Wall and Back again 1st Cu. cast off & turn.
%%endtext
%-------------------------
%%sep 2 4 300
